X:265
T: KENNT IHR DAS LAND
N: F0464
O: Europa, Mitteleuropa, Deutschland
R: Vaterlands -, Heimat - Lied
M: 3/4
L: 1/16
K: C
 | C,4E,4G,4 | C4E4D4 | D3CC4
A,4 | A,4E4E4 | F8D4 | C3B,B,4
G,4 | G,8C4 | B,4A,4G,4 | G,2E2F2E2D2C2 | C4B,2z2
G,4 | _A,3A,A,4E4 | _E8_D3C | C4z2
C2_A,2G,2 | ^F,3DD4D4 | D8
G,4 | C3G,G,4B,4 | C3G,G,4
D4 | E3CC4D4 | E3CC2
G,2C2E2 | G12- | G4F4D4 | C8B,4 | C12

